build/finance/GetCashOutline.svg

<svg xmlns="http://www.w3.org/2000/svg" fill="none" viewBox="0 0 24 24" focusable="false"><path d="M0 0H24V24H0z"/><path fill="#74767B" fill-rule="evenodd" d="M21 7C21 5.34315 19.6569 4 18 4L6 4C4.34315 4 3 5.34315 3 7L3 17C3 18.6569 4.34315 20 6 20L18 20C19.6569 20 21 18.6569 21 17L21 14.9652C21.5733 14.8298 22 14.3147 22 13.7L22 10.3C22 9.68528 21.5733 9.17022 21 9.03479L21 7ZM4.3 7C4.3 6.06112 5.06112 5.3 6 5.3L11.4064 5.3L11.4064 9.36892L9.92089 7.8113C9.68089 7.5513 9.27089 7.5313 9.00089 7.7713C8.86089 7.9013 8.79089 8.0713 8.79089 8.2513C8.79089 8.4113 8.84089 8.5613 8.96089 8.6913L11.5364 11.4013C11.8164 11.7113 12.2964 11.7113 12.5764 11.4013L15.0409 8.6913C15.2809 8.4213 15.2609 8.0113 15.0009 7.7713C14.7309 7.5313 14.3209 7.5413 14.0809 7.8113L12.7064 9.36186L12.7064 5.3L18 5.3C18.9389 5.3 19.7 6.06112 19.7 7L19.7 9L19 9C17.3431 9 16 10.3431 16 12C16 13.6569 17.3431 15 19 15L19.7 15L19.7 17C19.7 17.9389 18.9389 18.7 18 18.7L6 18.7C5.06112 18.7 4.3 17.9389 4.3 17L4.3 7ZM20.7 13.7L19 13.7C18.0611 13.7 17.3 12.9389 17.3 12C17.3 11.0611 18.0611 10.3 19 10.3L20.7 10.3L20.7 13.7Z"/></svg>

<svg xmlns="http://www.w3.org/2000/svg" fill="none" viewBox="0 0 24 24" focusable="false"><path fill="#74767B" fill-rule="evenodd" d="M21 7c0-1.66-1.35-3-3-3H6C4.34 4 3 5.34 3 7v10c0 1.65 1.34 3 3 3h12c1.65 0 3-1.35 3-3v-2.04c.57-.14 1-.65 1-1.26v-3.4c0-.62-.43-1.13-1-1.27zM4.3 7c0-.94.76-1.71 1.7-1.71h5.4v4.07L9.92 7.81A.66.66 0 0 0 9 7.77c-.14.13-.21.3-.21.48 0 .16.05.31.17.44l2.57 2.71c.28.31.76.31 1.04 0l2.47-2.71c.24-.27.22-.68-.04-.92a.65.65 0 0 0-.92.04L12.7 9.36V5.29H18c.93 0 1.7.77 1.7 1.71v2H19c-1.66 0-3 1.34-3 3 0 1.65 1.34 3 3 3h.7v2c0 .93-.77 1.7-1.7 1.7H6c-.94 0-1.7-.77-1.7-1.7zm16.4 6.7H19c-.94 0-1.71-.77-1.71-1.7 0-.94.77-1.7 1.71-1.7h1.7z"/></svg>
